src/icons/ai-gateway.svg

<svg xmlns="http://www.w3.org/2000/svg" viewBox="0 0 80 79"><path d="M69.3 39.7c-3.1 0-5.8 2.1-6.7 5H48.3V34h4.6l4.5-2.5c1.1.8 2.5 1.2 3.9 1.2 3.8 0 7-3.1 7-7s-3.1-7-7-7-7 3.1-7 7c0 .9.2 1.8.5 2.6L51.9 30h-3.5V18.8h-.1c-1.3-1-2.9-1.6-4.5-1.9h-.2c-1.9-.3-3.9-.1-5.8.6-.4.1-.8.3-1.2.5h-.1c-.1.1-.2.1-.3.2-1.7 1-3 2.4-4 4 0 .1-.1.2-.1.2l-.3.6c0 .1-.1.1-.1.2v.1h-.6c-2.9 0-5.7 1.2-7.7 3.2-2.1 2-3.2 4.8-3.2 7.7 0 .7.1 1.4.2 2.1-1.3.9-2.4 2.1-3.2 3.5s-1.2 2.9-1.4 4.5c-.1 1.6.1 3.2.7 4.7s1.5 2.9 2.6 4c-.8 1.8-1.2 3.7-1.1 5.6 0 1.9.5 3.8 1.4 5.6s2.1 3.2 3.6 4.4c1.3 1 2.7 1.7 4.3 2.2v-.1q2.25.75 4.8.6h.1c0 .1.1.1.1.1.9 1.7 2.3 3 4 4 .1.1.2.1.3.2h.1c.4.2.8.4 1.2.5 1.4.6 3 .8 4.5.7.4 0 .8-.1 1.3-.1h.1c1.6-.3 3.1-.9 4.5-1.9V62.9h3.5l3.1 1.7c-.3.8-.5 1.7-.5 2.6 0 3.8 3.1 7 7 7s7-3.1 7-7-3.1-7-7-7c-1.5 0-2.8.5-3.9 1.2l-4.6-2.5h-4.6V48.7h14.3c.9 2.9 3.5 5 6.7 5 3.8 0 7-3.1 7-7s-3.1-7-7-7m-7.9-16.9c1.6 0 3 1.3 3 3s-1.3 3-3 3-3-1.3-3-3 1.4-3 3-3m0 41.4c1.6 0 3 1.3 3 3s-1.3 3-3 3-3-1.3-3-3 1.4-3 3-3M44.3 72c-.4.2-.7.3-1.1.3-.2 0-.4.1-.5.1h-.2c-.9.1-1.7 0-2.6-.3-1-.3-1.9-.9-2.7-1.7-.7-.8-1.3-1.7-1.6-2.7l-.3-1.5v-.7q0-.75.3-1.5c.1-.2.1-.4.2-.7s.3-.6.5-.9c0-.1.1-.1.1-.2.1-.1.1-.2.2-.3s.1-.2.2-.3c0 0 0-.1.1-.1l.6-.6-2.7-3.5c-1.3 1.1-2.3 2.4-2.9 3.9-.2.4-.4.9-.5 1.3v.1c-.1.2-.1.4-.1.6-.3 1.1-.4 2.3-.3 3.4-.3 0-.7 0-1-.1-2.2-.4-4.2-1.5-5.5-3.2-1.4-1.7-2-3.9-1.8-6.1q.15-1.2.6-2.4l.3-.6c.1-.2.2-.4.3-.5 0 0 0-.1.1-.1.4-.7.9-1.3 1.5-1.9 1.6-1.5 3.8-2.3 6-2.3q1.05 0 2.1.3v-4.5c-.7-.1-1.4-.2-2.1-.2-1.8 0-3.5.4-5.2 1.1-.7.3-1.3.6-1.9 1s-1.1.8-1.7 1.3c-.3.2-.5.5-.8.8-.6-.8-1-1.6-1.3-2.6-.2-1-.2-2 0-2.9.2-1 .6-1.9 1.3-2.6.6-.8 1.4-1.4 2.3-1.8l1.8-.9-.7-1.9c-.4-1-.5-2.1-.4-3.1s.5-2.1 1.1-2.9q.9-1.35 2.4-2.1c.9-.5 2-.8 3-.7.5 0 1 .1 1.5.2 1 .2 1.8.7 2.6 1.3s1.4 1.4 1.8 2.3l4.1-1.5c-.9-2-2.3-3.7-4.2-4.9q-.6-.3-.9-.6c.4-.7 1-1.4 1.6-1.9.8-.7 1.8-1.1 2.9-1.3.9-.2 1.7-.1 2.6 0 .4.1.7.2 1.1.3V72zm25-22.3c-1.6 0-3-1.3-3-3 0-1.6 1.3-3 3-3s3 1.3 3 3c0 1.6-1.3 3-3 3"/></svg>

<svg xmlns="http://www.w3.org/2000/svg" viewBox="0 0 80 79"><path d="M69.3 39.7C66.2 39.7 63.5 41.8 62.6 44.7H48.3V34H52.9L57.4 31.5C58.5 32.3 59.9 32.7 61.3 32.7C65.1 32.7 68.3 29.6 68.3 25.7C68.3 21.8 65.2 18.7 61.3 18.7C57.4 18.7 54.3 21.8 54.3 25.7C54.3 26.6 54.5 27.5 54.8 28.3L51.9 30H48.4V22.8V18.8H48.3C47 17.8 45.4 17.2 43.8 16.9C43.8 16.9 43.7 16.9 43.6 16.9C41.7 16.6 39.7 16.8 37.8 17.5C37.4 17.6 37 17.8 36.6 18C36.6 18 36.6 18 36.5 18C36.4 18.1 36.3 18.1 36.2 18.2C34.5 19.2 33.2 20.6 32.2 22.2C32.2 22.3 32.1 22.4 32.1 22.4C32 22.6 31.9 22.8 31.8 23C31.8 23.1 31.7 23.1 31.7 23.2V23.3C31.5 23.3 31.3 23.3 31.1 23.3C28.2 23.3 25.4 24.5 23.4 26.5C21.3 28.5 20.2 31.3 20.2 34.2C20.2 34.9 20.3 35.6 20.4 36.3C19.1 37.2 18 38.4 17.2 39.8C16.4 41.2 16 42.7 15.8 44.3C15.7 45.9 15.9 47.5 16.5 49C17.1 50.5 18 51.9 19.1 53C18.3 54.8 17.9 56.7 18 58.6C18 60.5 18.5 62.4 19.4 64.2C20.3 66 21.5 67.4 23 68.6C24.3 69.6 25.7 70.3 27.3 70.8V70.7C28.8 71.2 30.4 71.4 32.1 71.3H32.2C32.2 71.4 32.3 71.4 32.3 71.4C33.2 73.1 34.6 74.4 36.3 75.4C36.4 75.5 36.5 75.5 36.6 75.6C36.6 75.6 36.6 75.6 36.7 75.6C37.1 75.8 37.5 76 37.9 76.1C39.3 76.7 40.9 76.9 42.4 76.8C42.8 76.8 43.2 76.7 43.7 76.7H43.8C45.4 76.4 46.9 75.8 48.3 74.8V62.9H51.8L54.9 64.6C54.6 65.4 54.4 66.3 54.4 67.2C54.4 71 57.5 74.2 61.4 74.2C65.3 74.2 68.4 71.1 68.4 67.2C68.4 63.3 65.3 60.2 61.4 60.2C59.9 60.2 58.6 60.7 57.5 61.4L52.9 58.9H48.3V50.3V48.7H62.6C63.5 51.6 66.1 53.7 69.3 53.7C73.1 53.7 76.3 50.6 76.3 46.7C76.3 42.8 73.2 39.7 69.3 39.7ZM61.4 22.8C63 22.8 64.4 24.1 64.4 25.8C64.4 27.5 63.1 28.8 61.4 28.8C59.7 28.8 58.4 27.5 58.4 25.8C58.4 24.1 59.8 22.8 61.4 22.8ZM61.4 64.2C63 64.2 64.4 65.5 64.4 67.2C64.4 68.9 63.1 70.2 61.4 70.2C59.7 70.2 58.4 68.9 58.4 67.2C58.4 65.5 59.8 64.2 61.4 64.2ZM44.3 72C43.9 72.2 43.6 72.3 43.2 72.3C43 72.3 42.8 72.4 42.7 72.4H42.6H42.5C41.6 72.5 40.8 72.4 39.9 72.1C38.9 71.8 38 71.2 37.2 70.4C36.5 69.6 35.9 68.7 35.6 67.7C35.5 67.2 35.4 66.7 35.3 66.2C35.3 66 35.3 65.7 35.3 65.5C35.3 65 35.4 64.5 35.6 64C35.7 63.8 35.7 63.6 35.8 63.3C35.9 63 36.1 62.7 36.3 62.4C36.3 62.3 36.4 62.3 36.4 62.2C36.5 62.1 36.5 62 36.6 61.9C36.7 61.8 36.7 61.7 36.8 61.6C36.8 61.6 36.8 61.5 36.9 61.5C37.1 61.3 37.3 61.1 37.5 60.9L34.8 57.4C33.5 58.5 32.5 59.8 31.9 61.3C31.7 61.7 31.5 62.2 31.4 62.6V62.7C31.3 62.9 31.3 63.1 31.3 63.3C31 64.4 30.9 65.6 31 66.7C30.7 66.7 30.3 66.7 30 66.6C27.8 66.2 25.8 65.1 24.5 63.4C23.1 61.7 22.5 59.5 22.7 57.3C22.8 56.5 23 55.7 23.3 54.9C23.4 54.7 23.5 54.5 23.6 54.3C23.7 54.1 23.8 53.9 23.9 53.8C23.9 53.8 23.9 53.7 24 53.7C24.4 53 24.9 52.4 25.5 51.8C27.1 50.3 29.3 49.5 31.5 49.5C32.2 49.5 32.9 49.6 33.6 49.8V45.3C32.9 45.2 32.2 45.1 31.5 45.1C29.7 45.1 28 45.5 26.3 46.2C25.6 46.5 25 46.8 24.4 47.2C23.8 47.6 23.3 48 22.7 48.5C22.4 48.7 22.2 49 21.9 49.3C21.3 48.5 20.9 47.7 20.6 46.7C20.4 45.7 20.4 44.7 20.6 43.8C20.8 42.8 21.2 41.9 21.9 41.2C22.5 40.4 23.3 39.8 24.2 39.4L26 38.5L25.3 36.6C24.9 35.6 24.8 34.5 24.9 33.5C25 32.5 25.4 31.4 26 30.6C26.6 29.7 27.4 29 28.4 28.5C29.3 28 30.4 27.7 31.4 27.8C31.9 27.8 32.4 27.9 32.9 28C33.9 28.2 34.7 28.7 35.5 29.3C36.3 29.9 36.9 30.7 37.3 31.6L41.4 30.1C40.5 28.1 39.1 26.4 37.2 25.2C36.8 25 36.5 24.8 36.3 24.6C36.7 23.9 37.3 23.2 37.9 22.7C38.7 22 39.7 21.6 40.8 21.4C41.7 21.2 42.5 21.3 43.4 21.4C43.8 21.5 44.1 21.6 44.5 21.7V23V50.4V72H44.3ZM69.3 49.7C67.7 49.7 66.3 48.4 66.3 46.7C66.3 45.1 67.6 43.7 69.3 43.7C71 43.7 72.3 45 72.3 46.7C72.3 48.3 71 49.7 69.3 49.7Z"/></linearGradient></defs></svg>
